svg/u1f6b6_1f3fd.svg

<svg viewBox="0 0 128 128" xmlns="http://www.w3.org/2000/svg">
  <g id="head">
    <path d="M67.17,13.34c-2.51-4.06-8.2-7.22-12.91-6.44c-5.28,0.87-8.11,4.67-8.86,9.49 c-0.27,1.75-0.22,3.49,0.08,4.72c0.04,0.15,0.33,1.22,0.35,1.56c0.2,1.3-2.32,2.59-2.61,4.02c-0.22,1.08,2.03,1.77,2.21,1.96 c0.88,0.97-0.51,5.58,5.66,6.04c2.37,0.18,1.91,0.03,2.61,0.3c1.09,0.42,0.99,3.32,0.99,3.32s0.61,4.78,4.69,3.51 c4.66-1.44,4.84-4.74,4.84-4.74s-1.73-4.6,1.05-9.38C67.48,23.88,68.79,15.95,67.17,13.34z" fill="#BA8D68"/>
  </g>
  <path id="mouth_2_" d="M46.05,31.23c0.86,0.05,1.7-0.15,2.43-0.69c0.79-0.59,0.25-1.24-0.66-0.86 c-0.55,0.23-1.32,0.35-2.02,0.22L46.05,31.23z" fill="#5D4037"/>
  <ellipse id="eye_2_" cx="49.65" cy="23.39" fill="#49362E" rx="1.13" ry="1.74" transform="matrix(0.9995 -0.0315 0.0315 0.9995 -0.7121 1.5755)"/>
  <path id="eyebrow_2_" d="M48.77,20.82c-1.12,0.26-1.34-0.48-0.94-1.04c0.29-0.42,0.98-0.74,2.25-0.42 c1.2,0.3,1.66,1.03,1.97,1.47s0.24,0.86-0.04,0.89C51.63,21.74,50.15,20.5,48.77,20.82z" fill="#613E31"/>
  <g id="pants_x5F_back_2_">
    <path d="M85.26,108.68L71.19,92.63c-0.88-1-1.4-2.26-1.48-3.59l-1.38-22.46l-15.5,1.71l4.88,23.17 c0.79,3.75,2.9,7.09,5.94,9.42l16.49,12.6L85.26,108.68z" fill="#616161"/>
  </g>
  <g id="pants_x5F_front_2_">
    <path d="M68.15,62.88l-17.58,1.61l-4.53,20.39c-0.83,3.76-1.12,7.63-0.85,11.47l1.63,23.24h6.67l2.95-25.03 c0,0,5.01-13.32,5.17-13.4c4.07-1.93,7.59-4.92,7.41-9.83C68.93,68.51,68.47,65.67,68.15,62.88z" fill="#7C7C7C"/>
  </g>
  <g id="shirt_2_">
    <g id="shirt_x5F_fill_3_">
      <linearGradient id="SVGID_1_" gradientTransform="matrix(1 0 0 -1 0 128)" gradientUnits="userSpaceOnUse" x1="51.8724" x2="69.1224" y1="77.6397" y2="65.6397">
        <stop offset="0" stop-color="#F78C1F"/>
        <stop offset="0.482" stop-color="#F47F12"/>
        <stop offset="1" stop-color="#EF6C00"/>
      </linearGradient>
      <path d="M64.89,73.51H52.99c-2.27,0-4.12-2.18-4.12-4.86l2.15-22.5c0.44-4.11,2.53-8.09,4.63-9.59 c1.97-1.41,4.82-1.64,4.82-1.64c1.53-0.12,3.8,0.25,5.25,2.37c0.87,1.27,1.52,3.75,1.66,5.88L69,68.65 C69,71.34,67.16,73.51,64.89,73.51z" fill="url(#SVGID_1_)"/>
    </g>
  </g>
  <g id="arm">
    <linearGradient id="SVGID_2_" gradientTransform="matrix(1 0 0 -1 0 128)" gradientUnits="userSpaceOnUse" x1="59.1987" x2="56.0045" y1="57.6172" y2="76.3419">
      <stop offset="0.4606" stop-color="#BA8D68"/>
      <stop offset="0.9996" stop-color="#A47B62"/>
    </linearGradient>
    <path d="M66.8,60.29l-2.25-13.83l-6.97,1.13l2.15,13.19l-3.57,9.84c-0.23,0.45-3.46,1.91-3.66,2.01 c-0.62,0.3-1.05,0.89-1.37,2.06c-0.19,0.72-0.67,2.78,0.34,3.14c-0.34,0.95-0.12,2.14,0.14,2.42c0.6,0.65,1.33,0.36,1.33,0.36 s0.1,0.83,0.76,1.06c0.82,0.29,1.39-0.16,1.39-0.16c0.29,0.22,0.64,0.34,1.01,0.34c0.44,0,0.83-0.17,1.13-0.39 c0.19,0.08,0.71,0.39,1.37-0.08c0.42-0.3,1.74-2.03,2.15-3.14c0.28-0.76,0.24-4.58,0.59-5.25c0.35-0.67,5.14-10.2,5.14-10.2 l-0.01,0C66.9,62,67,61.11,66.8,60.29z" fill="url(#SVGID_2_)"/>
  </g>
  <g id="hand">
    <linearGradient id="SVGID_3_" gradientTransform="matrix(1 0 0 -1 0 128)" gradientUnits="userSpaceOnUse" x1="53.3336" x2="55.5812" y1="44.8394" y2="50.6919">
      <stop offset="0.4561" stop-color="#BA8D68"/>
      <stop offset="1" stop-color="#A47B62"/>
    </linearGradient>
    <path d="M58.88,78.7c-0.23-0.6-0.38-0.64-0.8-0.53c-0.57,0.15-1.19,0.13-1.54-0.57 c-0.08-0.17-0.2-0.23-0.38-0.17c-0.61,0.2-1.37,0.21-1.63-0.71c-0.1-0.34-0.24-0.38-0.61-0.38c-0.12,0-0.47,0.15-0.83-0.23 c-0.4-0.43,0.14-1.29-0.37-1.37c-0.15-0.02-0.87,0.06-1.09-0.71c-0.14-0.5,0.44-1.1,0.45-1.11c-0.4,0.35-0.71,0.9-0.94,1.78 c-0.19,0.72-0.67,2.78,0.34,3.14c-0.34,0.95-0.12,2.14,0.14,2.42c0.6,0.65,1.33,0.36,1.33,0.36s0.1,0.83,0.76,1.06 c0.82,0.29,1.39-0.16,1.39-0.16c0.29,0.22,0.64,0.34,1.01,0.34c0.44,0,0.83-0.17,1.13-0.39c0.19,0.08,0.71,0.39,1.37-0.08 c0.35-0.25,1.34-1.52,1.89-2.58C60.01,79.2,59.05,79.15,58.88,78.7z" fill="url(#SVGID_3_)"/>
  </g>
  <g id="shoe_x5F_front_2_">
    <path d="M54.6,123.98c0.63,0,1.15-0.51,1.15-1.15l0-2.8c0-1.9-1.93-4.07-1.93-4.07h-6.98l-6.28,2.07 c-1.52,0.6-2.53,2.06-2.54,3.69l-0.01,1.26c0,0.55,0.45,1,1,1L54.6,123.98z" fill="#4568AD"/>
  </g>
  <g id="shoe_x5F_back_2_">
    <path d="M89.65,111.84c0.45-0.45,0.45-1.17,0-1.62l-1.98-1.98c-1.35-1.35-4.24-1.52-4.24-1.52l-4.93,4.93 l-2.97,5.91c-0.65,1.5-0.33,3.24,0.82,4.41l0.89,0.9c0.39,0.39,1.03,0.39,1.42,0L89.65,111.84z" fill="#325599"/>
  </g>
  <path id="tone_3_" d="M58.37,79.39c0.07,0.49-0.06,0.86-0.24,1.22c-0.2,0.34-0.44,0.65-0.89,0.86 c-0.07-0.49,0.06-0.86,0.24-1.22C57.67,79.91,57.92,79.6,58.37,79.39z" fill="#91674D"/>
  <path id="tone_2_" d="M56.35,78.48c0.07,0.63-0.07,1.19-0.27,1.72c-0.22,0.52-0.48,1.03-0.97,1.44 c-0.07-0.64,0.07-1.19,0.27-1.72C55.6,79.41,55.87,78.9,56.35,78.48z" fill="#91674D"/>
  <path id="tone_1_" d="M53.95,77.48c0.12,0.62,0.02,1.18-0.13,1.72c-0.17,0.53-0.4,1.05-0.85,1.5 c-0.12-0.62-0.02-1.18,0.13-1.72C53.28,78.45,53.51,77.93,53.95,77.48z" fill="#91674D"/>
  <path id="tone" d="M53.8,73.88c-0.31,0.27-0.61,0.55-0.86,0.85c-0.27,0.3-0.4,0.57-0.49,0.96 c-0.23,0.74-0.46,1.51-1,2.22c-0.16-0.87,0-1.69,0.33-2.47c0.17-0.38,0.5-0.82,0.86-1.04C53.01,74.15,53.4,73.98,53.8,73.88z" fill="#91674D"/>
  <g id="shirt_x5F_sleeve_6_">
    <g id="shirt_x5F_sleeve_7_">
      <path d="M56.4,53l10.9-1.98l-1.76-9.69c-0.55-3.01-3.43-5.01-6.44-4.46l0,0c-3.01,0.55-5.01,3.43-4.46,6.44 L56.4,53z" fill="#ED6D23"/>
    </g>
  </g>
  <g id="hairGroup">
    <path id="hair" d="M70.66,13.53c-1.32-3.31-4-4.31-4.88-4.55c-0.41-1.2-2.49-5.75-10-4.51 c-1.83,0.3-3.17,1.17-4.35,1.94C50.93,6.74,50.45,7.06,50,7.27c-0.37,0.17-1.01,0.33-1.54,0.16c-1.21-0.4-0.83-2.24-0.83-2.24 s-4.44,0.88-2.53,5.17c-1.49,0.66-2.18,2.24-2.44,3.73c-0.36,2.03,0.63,3.96,2.58,4.83c0,0-0.39-3.26,4.32-3.07 c1.46,0.06,2.99,0.29,4.34-0.26c0.52-0.21,1-0.54,1.5-0.78c0.12,0,0.18,0,0.18,0c1.78,0.95-0.56,5.16,1.42,7.62 c0.39,0.49,0.72,0.31,0.72,0.31l0.79-1.17c0.6-0.8,1.15-1.5,1.9-1.33c2.22,0.49,1.82,4.45-0.81,5.32c-0.26,0.09,0.35,4.5,5.8,4.5 c2.82,0,3.81-2.34,3.81-2.34s-1.2,0.3-1.46-0.72c-0.14-0.53,0.35-1.25,1.23-2.03c2.54-2.26,1.62-4.86,1.25-5.67 C70.63,18.54,71.69,16.12,70.66,13.53z" fill="#543930"/>
    <g id="hairHighlights">
      <radialGradient id="SVGID_4_" cx="63.4351" cy="103.5031" gradientTransform="matrix(0.9381 0.3463 0.4988 -1.351 -47.7029 142.3603)" gradientUnits="userSpaceOnUse" r="7.1218">
        <stop offset="0.45" stop-color="#6D4C41" stop-opacity="0"/>
        <stop offset="1" stop-color="#6D4C41"/>
      </radialGradient>
      <path d="M70.24,19.29c0.05-0.09-0.79,2.01-4.39,1.66c-1.48,0-3.54,3.57-1.38,5.93 c1.92,2.08,4.75,0.83,4.75,0.83s-0.39,0.11-0.96-0.08c-0.37-0.13-0.5-0.61-0.5-0.64c-0.14-0.53,0.35-1.25,1.23-2.03 C71.53,22.69,70.61,20.1,70.24,19.29z" fill="url(#SVGID_4_)"/>
      <radialGradient id="SVGID_5_" cx="64.2769" cy="110.6849" gradientTransform="matrix(0.9909 -0.1344 -0.1696 -1.2504 19.3552 164.3546)" gradientUnits="userSpaceOnUse" r="7.2189">
        <stop offset="0.45" stop-color="#6D4C41" stop-opacity="0"/>
        <stop offset="1" stop-color="#6D4C41"/>
      </radialGradient>
      <path d="M70.66,13.53c-0.69-1.74-1.96-3.21-3.64-4.06c-0.24-0.12-0.84-0.41-1.25-0.49 c0.2,0.77,0.18,1.6-0.15,2.45c-0.01,0.03-0.39,1.3-1.48,2.31c0.79,1.1,1.19,2.43,1.57,3.74c0.33,1.14,0.65,2.4,0.14,3.47 c0.69-0.04,1.79,0.15,3-0.39c1.16-0.52,1.77-1.86,2.05-3.06C71.21,16.19,71.16,14.8,70.66,13.53z" fill="url(#SVGID_5_)"/>
      <radialGradient id="SVGID_6_" cx="56.224" cy="113.1761" gradientTransform="matrix(0.9882 -0.1534 -0.1153 -0.7428 13.7146 107.5168)" gradientUnits="userSpaceOnUse" r="14.8578">
        <stop offset="0.45" stop-color="#6D4C41" stop-opacity="0"/>
        <stop offset="1" stop-color="#6D4C41"/>
      </radialGradient>
      <path d="M65.61,11.44c0.87-2.23-0.36-4.29-2.21-5.66c-2.18-1.61-5.04-1.73-7.62-1.31 c-1.83,0.3-3.17,1.17-4.35,1.94c-0.51,0.33-0.99,0.64-1.44,0.86c-0.37,0.17-1.01,0.33-1.54,0.16c-1.21-0.4-0.83-2.24-0.83-2.24 s-4.44,0.88-2.53,5.17c-1.49,0.66-2.18,2.24-2.44,3.73c-0.36,2.03,0.63,3.96,2.58,4.83c0,0-0.39-3.26,4.32-3.07 c1.46,0.06,2.99,0.29,4.34-0.26c1.2-0.48,1.6-1.13,2.95-1.06c1.45,0.08,3.38,0.63,4.87,0.4C64.72,14.47,65.6,11.48,65.61,11.44z" fill="url(#SVGID_6_)"/>
      <radialGradient id="SVGID_7_" cx="65.0763" cy="102.6346" gradientTransform="matrix(0.9692 0.2463 0.1583 -0.6231 -14.2425 73.2913)" gradientUnits="userSpaceOnUse" r="7.9986">
        <stop offset="0.45" stop-color="#6D4C41" stop-opacity="0"/>
        <stop offset="1" stop-color="#6D4C41"/>
      </radialGradient>
      <path d="M64.47,26.88c-0.97-1.03-1.23-2.73-2.75-3.63c-0.28,0.99-0.99,1.92-2.12,2.3 c-0.26,0.09,0.35,4.5,5.8,4.5c2.82,0,3.81-2.34,3.81-2.34S66.42,28.95,64.47,26.88z" fill="url(#SVGID_7_)"/>
    </g>
  </g>
</svg>

<svg viewBox="0 0 128 128" xmlns="http://www.w3.org/2000/svg">
  <defs>
    <linearGradient id="SVGID_1_" gradientTransform="matrix(1 0 0 -1 0 0)" gradientUnits="userSpaceOnUse" x1="51.8724" x2="69.1224" y1="-50.3603" y2="-62.3603">
      <stop offset="0" stop-color="#F78C1F"/>
      <stop offset="0.482" stop-color="#F47F12"/>
      <stop offset="1" stop-color="#EF6C00"/>
    </linearGradient>
    <linearGradient id="SVGID_2_" gradientTransform="matrix(1 0 0 -1 0 0)" gradientUnits="userSpaceOnUse" x1="59.1987" x2="56.0045" y1="-70.3828" y2="-51.6581">
      <stop offset="0.4606" stop-color="#BA8D68"/>
      <stop offset="0.9996" stop-color="#A47B62"/>
    </linearGradient>
    <linearGradient id="SVGID_3_" gradientTransform="matrix(1 0 0 -1 0 0)" gradientUnits="userSpaceOnUse" x1="53.3336" x2="55.5812" y1="-83.1606" y2="-77.3081">
      <stop offset="0.4561" stop-color="#BA8D68"/>
      <stop offset="1" stop-color="#A47B62"/>
    </linearGradient>
    <radialGradient id="SVGID_4_" cx="67.99219" cy="-0.702807" gradientTransform="matrix(0.9381 0.3463 0.4988 -1.351 0 0)" gradientUnits="userSpaceOnUse" r="7.1218">
      <stop offset="0.45" stop-color="#6D4C41" stop-opacity="0"/>
      <stop offset="1" stop-color="#6D4C41"/>
    </radialGradient>
    <radialGradient id="SVGID_5_" cx="61.366175" cy="-20.443858" gradientTransform="matrix(0.9909 -0.1344 -0.1696 -1.2504 0 0)" gradientUnits="userSpaceOnUse" r="7.2189">
      <stop offset="0.45" stop-color="#6D4C41" stop-opacity="0"/>
      <stop offset="1" stop-color="#6D4C41"/>
    </radialGradient>
    <radialGradient id="SVGID_6_" cx="53.284772" cy="-30.962191" gradientTransform="matrix(0.9882 -0.1534 -0.1153 -0.7428 0 0)" gradientUnits="userSpaceOnUse" r="14.8578">
      <stop offset="0.45" stop-color="#6D4C41" stop-opacity="0"/>
      <stop offset="1" stop-color="#6D4C41"/>
    </radialGradient>
    <radialGradient id="SVGID_7_" cx="69.318827" cy="-13.312063" gradientTransform="matrix(0.9692 0.2463 0.1583 -0.6231 0 0)" gradientUnits="userSpaceOnUse" r="7.9986">
      <stop offset="0.45" stop-color="#6D4C41" stop-opacity="0"/>
      <stop offset="1" stop-color="#6D4C41"/>
    </radialGradient>
  </defs>
  <path d="M67.17,13.34 C64.66,9.28 58.97,6.12 54.26,6.9 C48.98,7.77 46.15,11.57 45.4,16.39 C45.13,18.14 45.18,19.88 45.48,21.11 C45.52,21.26 45.81,22.33 45.83,22.67 C46.03,23.97 43.51,25.26 43.22,26.69 C43,27.77 45.25,28.46 45.43,28.65 C46.31,29.62 44.92,34.23 51.09,34.69 C53.46,34.87 53,34.72 53.7,34.99 C54.79,35.41 54.69,38.31 54.69,38.31 C54.69,38.31 55.3,43.09 59.38,41.82 C64.04,40.38 64.22,37.08 64.22,37.08 C64.22,37.08 62.49,32.48 65.27,27.7 C67.48,23.88 68.79,15.95 67.17,13.34 Z" fill="#BA8D68"/>
  <path id="mouth_2_" d="M46.05,31.23 C46.91,31.28 47.75,31.08 48.48,30.54 C49.27,29.95 48.73,29.3 47.82,29.68 C47.27,29.91 46.5,30.03 45.8,29.9 L46.05,31.23 Z" fill="#5D4037"/>
  <path id="eye_2_" d="M50.779,23.354 C50.81,24.315 50.328,25.109 49.705,25.129 C49.081,25.149 48.551,24.386 48.52,23.425 C48.49,22.465 48.971,21.67 49.595,21.651 C50.219,21.631 50.749,22.394 50.779,23.354 Z" fill="#49362E"/>
  <path id="eyebrow_2_" d="M48.77,20.82 C47.65,21.08 47.43,20.34 47.83,19.78 C48.12,19.36 48.81,19.04 50.08,19.36 C51.28,19.66 51.74,20.39 52.05,20.83 C52.36,21.27 52.29,21.69 52.01,21.72 C51.63,21.74 50.15,20.5 48.77,20.82 Z" fill="#613E31"/>
  <path d="M85.26,108.68 L71.19,92.63 C70.31,91.63 69.79,90.37 69.71,89.04 L68.33,66.58 L52.83,68.29 L57.71,91.46 C58.5,95.21 60.61,98.55 63.65,100.88 L80.14,113.48 L85.26,108.68 Z" fill="#616161"/>
  <path d="M68.15,62.88 L50.57,64.49 L46.04,84.88 C45.21,88.64 44.92,92.51 45.19,96.35 L46.82,119.59 L53.49,119.59 L56.44,94.56 C56.44,94.56 61.45,81.24 61.61,81.16 C65.68,79.23 69.2,76.24 69.02,71.33 C68.93,68.51 68.47,65.67 68.15,62.88 Z" fill="#7C7C7C"/>
  <path d="M64.89,73.51 L52.99,73.51 C50.72,73.51 48.87,71.33 48.87,68.65 L51.02,46.15 C51.46,42.04 53.55,38.06 55.65,36.56 C57.62,35.15 60.47,34.92 60.47,34.92 C62,34.8 64.27,35.17 65.72,37.29 C66.59,38.56 67.24,41.04 67.38,43.17 L69,68.65 C69,71.34 67.16,73.51 64.89,73.51 Z" fill="url(#SVGID_1_)"/>
  <path d="M66.8,60.29 L64.55,46.46 L57.58,47.59 L59.73,60.78 L56.16,70.62 C55.93,71.07 52.7,72.53 52.5,72.63 C51.88,72.93 51.45,73.52 51.13,74.69 C50.94,75.41 50.46,77.47 51.47,77.83 C51.13,78.78 51.35,79.97 51.61,80.25 C52.21,80.9 52.94,80.61 52.94,80.61 C52.94,80.61 53.04,81.44 53.7,81.67 C54.52,81.96 55.09,81.51 55.09,81.51 C55.38,81.73 55.73,81.85 56.1,81.85 C56.54,81.85 56.93,81.68 57.23,81.46 C57.42,81.54 57.94,81.85 58.6,81.38 C59.02,81.08 60.34,79.35 60.75,78.24 C61.03,77.48 60.99,73.66 61.34,72.99 C61.69,72.32 66.48,62.79 66.48,62.79 L66.47,62.79 C66.9,62 67,61.11 66.8,60.29 Z" fill="url(#SVGID_2_)"/>
  <path d="M58.88,78.7 C58.65,78.1 58.5,78.06 58.08,78.17 C57.51,78.32 56.89,78.3 56.54,77.6 C56.46,77.43 56.34,77.37 56.16,77.43 C55.55,77.63 54.79,77.64 54.53,76.72 C54.43,76.38 54.29,76.34 53.92,76.34 C53.8,76.34 53.45,76.49 53.09,76.11 C52.69,75.68 53.23,74.82 52.72,74.74 C52.57,74.72 51.85,74.8 51.63,74.03 C51.49,73.53 52.07,72.93 52.08,72.92 C51.68,73.27 51.37,73.82 51.14,74.7 C50.95,75.42 50.47,77.48 51.48,77.84 C51.14,78.79 51.36,79.98 51.62,80.26 C52.22,80.91 52.95,80.62 52.95,80.62 C52.95,80.62 53.05,81.45 53.71,81.68 C54.53,81.97 55.1,81.52 55.1,81.52 C55.39,81.74 55.74,81.86 56.11,81.86 C56.55,81.86 56.94,81.69 57.24,81.47 C57.43,81.55 57.95,81.86 58.61,81.39 C58.96,81.14 59.95,79.87 60.5,78.81 C60.01,79.2 59.05,79.15 58.88,78.7 Z" fill="url(#SVGID_3_)"/>
  <path d="M54.6,123.98 C55.23,123.98 55.75,123.47 55.75,122.83 L55.75,120.03 C55.75,118.13 53.82,115.96 53.82,115.96 L46.84,115.96 L40.56,118.03 C39.04,118.63 38.03,120.09 38.02,121.72 L38.01,122.98 C38.01,123.53 38.46,123.98 39.01,123.98 L54.6,123.98 Z" fill="#4568AD"/>
  <path d="M89.65,111.84 C90.1,111.39 90.1,110.67 89.65,110.22 L87.67,108.24 C86.32,106.89 83.43,106.72 83.43,106.72 L78.5,111.65 L75.53,117.56 C74.88,119.06 75.2,120.8 76.35,121.97 L77.24,122.87 C77.63,123.26 78.27,123.26 78.66,122.87 L89.65,111.84 Z" fill="#325599"/>
  <path id="tone_3_" d="M58.37,79.39 C58.44,79.88 58.31,80.25 58.13,80.61 C57.93,80.95 57.69,81.26 57.24,81.47 C57.17,80.98 57.3,80.61 57.48,80.25 C57.67,79.91 57.92,79.6 58.37,79.39 Z" fill="#91674D"/>
  <path id="tone_2_" d="M56.35,78.48 C56.42,79.11 56.28,79.67 56.08,80.2 C55.86,80.72 55.6,81.23 55.11,81.64 C55.04,81 55.18,80.45 55.38,79.92 C55.6,79.41 55.87,78.9 56.35,78.48 Z" fill="#91674D"/>
  <path id="tone_1_" d="M53.95,77.48 C54.07,78.1 53.97,78.66 53.82,79.2 C53.65,79.73 53.42,80.25 52.97,80.7 C52.85,80.08 52.95,79.52 53.1,78.98 C53.28,78.45 53.51,77.93 53.95,77.48 Z" fill="#91674D"/>
  <path id="tone" d="M53.8,73.88 C53.49,74.15 53.19,74.43 52.94,74.73 C52.67,75.03 52.54,75.3 52.45,75.69 C52.22,76.43 51.99,77.2 51.45,77.91 C51.29,77.04 51.45,76.22 51.78,75.44 C51.95,75.06 52.28,74.62 52.64,74.4 C53.01,74.15 53.4,73.98 53.8,73.88 Z" fill="#91674D"/>
  <path d="M56.4,53 L67.3,51.02 L65.54,41.33 C64.99,38.32 62.11,36.32 59.1,36.87 L59.1,36.87 C56.09,37.42 54.09,40.3 54.64,43.31 L56.4,53 Z" fill="#ED6D23"/>
  <path id="hair" d="M70.66,13.53 C69.34,10.22 66.66,9.22 65.78,8.98 C65.37,7.78 63.29,3.23 55.78,4.47 C53.95,4.77 52.61,5.64 51.43,6.41 C50.93,6.74 50.45,7.06 50,7.27 C49.63,7.44 48.99,7.6 48.46,7.43 C47.25,7.03 47.63,5.19 47.63,5.19 C47.63,5.19 43.19,6.07 45.1,10.36 C43.61,11.02 42.92,12.6 42.66,14.09 C42.3,16.12 43.29,18.05 45.24,18.92 C45.24,18.92 44.85,15.66 49.56,15.85 C51.02,15.91 52.55,16.14 53.9,15.59 C54.42,15.38 54.9,15.05 55.4,14.81 C55.52,14.81 55.58,14.81 55.58,14.81 C57.36,15.76 55.02,19.97 57,22.43 C57.39,22.92 57.72,22.74 57.72,22.74 L58.51,21.57 C59.11,20.77 59.66,20.07 60.41,20.24 C62.63,20.73 62.23,24.69 59.6,25.56 C59.34,25.65 59.95,30.06 65.4,30.06 C68.22,30.06 69.21,27.72 69.21,27.72 C69.21,27.72 68.01,28.02 67.75,27 C67.61,26.47 68.1,25.75 68.98,24.97 C71.52,22.71 70.6,20.11 70.23,19.3 C70.63,18.54 71.69,16.12 70.66,13.53 Z" fill="#543930"/>
  <path d="M70.24,19.29 C70.29,19.2 69.45,21.3 65.85,20.95 C64.37,20.95 62.31,24.52 64.47,26.88 C66.39,28.96 69.22,27.71 69.22,27.71 C69.22,27.71 68.83,27.82 68.26,27.63 C67.89,27.5 67.76,27.02 67.76,26.99 C67.62,26.46 68.11,25.74 68.99,24.96 C71.53,22.69 70.61,20.1 70.24,19.29 Z" fill="url(#SVGID_4_)"/>
  <path d="M70.66,13.53 C69.97,11.79 68.7,10.32 67.02,9.47 C66.78,9.35 66.18,9.06 65.77,8.98 C65.97,9.75 65.95,10.58 65.62,11.43 C65.61,11.46 65.23,12.73 64.14,13.74 C64.93,14.84 65.33,16.17 65.71,17.48 C66.04,18.62 66.36,19.88 65.85,20.95 C66.54,20.91 67.64,21.1 68.85,20.56 C70.01,20.04 70.62,18.7 70.9,17.5 C71.21,16.19 71.16,14.8 70.66,13.53 Z" fill="url(#SVGID_5_)"/>
  <path d="M65.61,11.44 C66.48,9.21 65.25,7.15 63.4,5.78 C61.22,4.17 58.36,4.05 55.78,4.47 C53.95,4.77 52.61,5.64 51.43,6.41 C50.92,6.74 50.44,7.05 49.99,7.27 C49.62,7.44 48.98,7.6 48.45,7.43 C47.24,7.03 47.62,5.19 47.62,5.19 C47.62,5.19 43.18,6.07 45.09,10.36 C43.6,11.02 42.91,12.6 42.65,14.09 C42.29,16.12 43.28,18.05 45.23,18.92 C45.23,18.92 44.84,15.66 49.55,15.85 C51.01,15.91 52.54,16.14 53.89,15.59 C55.09,15.11 55.49,14.46 56.84,14.53 C58.29,14.61 60.22,15.16 61.71,14.93 C64.72,14.47 65.6,11.48 65.61,11.44 Z" fill="url(#SVGID_6_)"/>
  <path d="M64.47,26.88 C63.5,25.85 63.24,24.15 61.72,23.25 C61.44,24.24 60.73,25.17 59.6,25.55 C59.34,25.64 59.95,30.05 65.4,30.05 C68.22,30.05 69.21,27.71 69.21,27.71 C69.21,27.71 66.42,28.95 64.47,26.88 Z" fill="url(#SVGID_7_)"/>
</svg>
